resources/img/scalable/actions/flypie-window-close-symbolic.svg

<?xml version="1.0" encoding="UTF-8" standalone="no"?>
<svg
   xmlns:dc="http://purl.org/dc/elements/1.1/"
   xmlns:cc="http://creativecommons.org/ns#"
   xmlns:rdf="http://www.w3.org/1999/02/22-rdf-syntax-ns#"
   xmlns:svg="http://www.w3.org/2000/svg"
   xmlns="http://www.w3.org/2000/svg"
   xmlns:sodipodi="http://sodipodi.sourceforge.net/DTD/sodipodi-0.dtd"
   xmlns:inkscape="http://www.inkscape.org/namespaces/inkscape"
   width="4.2333336mm"
   height="4.2333336mm"
   version="1.1"
   viewBox="0 0 4.2333334 4.2333334"
   id="svg923"
   sodipodi:docname="flypie-window-close.svg"
   inkscape:version="1.0.2 (e86c870879, 2021-01-15)">
  <defs
     id="defs927" />
  <sodipodi:namedview
     pagecolor="#ffffff"
     bordercolor="#666666"
     borderopacity="1"
     objecttolerance="10"
     gridtolerance="10"
     guidetolerance="10"
     inkscape:pageopacity="0"
     inkscape:pageshadow="2"
     inkscape:window-width="960"
     inkscape:window-height="1131"
     id="namedview925"
     showgrid="false"
     inkscape:zoom="11.411037"
     inkscape:cx="35.877416"
     inkscape:cy="-15.863618"
     inkscape:window-x="960"
     inkscape:window-y="32"
     inkscape:window-maximized="0"
     inkscape:current-layer="svg923"
     inkscape:document-rotation="0"
     fit-margin-top="0"
     fit-margin-left="0"
     fit-margin-right="0"
     fit-margin-bottom="0" />
  <metadata
     id="metadata907">
    <rdf:RDF>
      <cc:Work
         rdf:about="">
        <dc:format>image/svg+xml</dc:format>
        <dc:type
           rdf:resource="http://purl.org/dc/dcmitype/StillImage" />
        <dc:title></dc:title>
      </cc:Work>
    </rdf:RDF>
  </metadata>
  <path
     sodipodi:nodetypes="ccsccccccccccccccccccccccc"
     style="color:#bebebe;font-style:normal;font-variant:normal;font-weight:normal;font-stretch:normal;font-size:medium;line-height:normal;font-family:'Andale Mono';-inkscape-font-specification:'Andale Mono';text-indent:0;text-align:start;text-decoration:none;text-decoration-line:none;letter-spacing:normal;word-spacing:normal;text-transform:none;writing-mode:lr-tb;direction:ltr;text-anchor:start;display:inline;overflow:visible;visibility:visible;fill:#2e3436;fill-opacity:1;fill-rule:nonzero;stroke:none;stroke-width:0.471289;marker:none;enable-background:new"
     id="path10839-9"
     inkscape:connector-curvature="0"
     d="m 1.0583333,1.0583333 h 0.2645833 c 0.00274,-3.18e-5 0.0055,-1.217e-4 0.00827,0 0.067456,0.00296 0.1349031,0.03402 0.1819011,0.082682 l 0.6035789,0.603581 0.6118489,-0.6035807 c 0.07028,-0.060987 0.1181819,-0.08083 0.181901,-0.082682 h 0.2645833 v 0.2645833 c 0,0.075795 -0.00909,0.1456928 -0.066146,0.1984375 L 2.5052733,2.1249348 3.1005858,2.7202473 c 0.049791,0.049787 0.074412,0.1199753 0.074414,0.1901692 V 3.1749998 H 2.9104165 C 2.8402223,3.1749972 2.7700323,3.1503671 2.7202473,3.1005858 L 2.1166666,2.4970051 1.5130859,3.1005858 c -0.049785,0.049792 -0.119978,0.074414 -0.1901693,0.074414 H 1.0583333 V 2.9104165 c -8e-7,-0.070191 0.024622,-0.1403826 0.074414,-0.1901692 L 1.736328,2.1249348 1.1327473,1.5213541 C 1.0769885,1.4698582 1.0525363,1.3971984 1.0583333,1.3229166 Z" />
</svg>

<svg xmlns="http://www.w3.org/2000/svg" width="16" height="16" viewBox="0 0 4.233 4.233"><path style="color:#bebebe;font-style:normal;font-variant:normal;font-weight:400;font-stretch:normal;font-size:medium;line-height:normal;font-family:'Andale Mono';-inkscape-font-specification:'Andale Mono';text-indent:0;text-align:start;text-decoration:none;text-decoration-line:none;letter-spacing:normal;word-spacing:normal;text-transform:none;writing-mode:lr-tb;direction:ltr;text-anchor:start;display:inline;overflow:visible;visibility:visible;fill:#2e3436;fill-opacity:1;fill-rule:nonzero;stroke:none;stroke-width:.471289;marker:none;enable-background:new" d="M1.058 1.058h.273a.275.275 0 0 1 .182.083l.604.604.612-.604c.07-.061.118-.08.181-.083h.265v.265c0 .076-.01.146-.066.198l-.604.604.596.595c.05.05.074.12.074.19v.265H2.91a.268.268 0 0 1-.19-.074l-.603-.604-.604.604a.268.268 0 0 1-.19.074h-.265V2.91c0-.07.025-.14.075-.19l.603-.595-.603-.604a.24.24 0 0 1-.075-.198Z"/></svg>
